static/images/plans/wpcom/plan-business-circle.svg

<svg height="72" viewBox="0 0 72 72" width="72" xmlns="http://www.w3.org/2000/svg" xmlns:xlink="http://www.w3.org/1999/xlink"><defs><circle id="a" cx="36" cy="36" r="36"/><path id="b" d="m4.27262212 31.0631214c-1.65269304-8.225042-3.27262212-24.12379805-3.27262212-27.0631214v-4h20v4c0 2.93932335-1.6199291 18.8380794-3.2726221 27.0631214 2.6399344 2.0095708 3.8807122 5.2883379 3.2726221 8.9368786-.9151524 5.4909145-7 15-9 18h-2c-2-3-8-12-9-18-.60809011-3.6485407.6326877-6.9273078 3.27262212-8.9368786zm7.61586448 11.167147c.8856432-.3531454 1.5115135-1.2185681 1.5115135-2.2301706 0-1.3254835-1.0745166-2.4000001-2.4000001-2.4000001-1.32548345 0-2.4000001 1.0745166-2.4000001 2.4000001 0 1.0116025.62587033 1.8770252 1.5115135 2.2301706l.5888609 11.7772176c.0076952.1539046.1307397.2769491.2846444.2846444.1654787.0082739.3063331-.1191657.314607-.2846444z"/><mask id="c" fill="#fff"><use fill="#fff" fill-rule="evenodd" xlink:href="#a"/></mask><mask id="d" fill="#fff"><path d="m0 0h72v72h-72z" fill="#fff" fill-rule="evenodd"/></mask><mask id="e" fill="#fff"><use fill="#fff" fill-rule="evenodd" xlink:href="#b"/></mask></defs><g fill="none" fill-rule="evenodd"><use fill="#e38a40" fill-rule="nonzero" xlink:href="#a"/><path d="m0 54h30c-22 1.305701-24.66666667 6.6300026-8 15.9729047-14.66666667 0-22-5.3243015-22-15.9729047z" fill="#b95e1b" mask="url(#c)"/><g mask="url(#c)"><g fill="none" fill-rule="evenodd" mask="url(#d)" transform="matrix(.8660254 .5 -.5 .8660254 22.823085 -13.176915)"><g fill-rule="evenodd" transform="translate(25 -4)"><use fill="#fff" xlink:href="#b"/><path d="m-1 0h24v26h-24z" fill="#bb4f10" mask="url(#e)"/></g></g></g></g></svg>

<?xml version="1.0" encoding="UTF-8"?><svg width="72px" height="72px" viewBox="0 0 72 72" version="1.1" xmlns="http://www.w3.org/2000/svg" xmlns:xlink="http://www.w3.org/1999/xlink"><defs><circle id="path-1" cx="36" cy="36" r="36"></circle><rect id="path-3" x="0" y="0" width="72" height="72"></rect><path d="M4.27262212,31.0631214 C2.61992908,22.8380794 1,6.93932335 1,4 L1,-6.82121026e-13 L21,-6.82121026e-13 L21,4 C21,6.93932335 19.3800709,22.8380794 17.7273779,31.0631214 C20.3673123,33.0726922 21.6080901,36.3514593 21,40 C20.0848476,45.4909145 14,55 12,58 L10,58 C8,55 2,46 1,40 C0.391909887,36.3514593 1.6326877,33.0726922 4.27262212,31.0631214 Z M11.8884866,42.2302684 C12.7741298,41.877123 13.4000001,41.0117003 13.4000001,40.0000978 C13.4000001,38.6746143 12.3254835,37.6000977 11,37.6000977 C9.67451655,37.6000977 8.5999999,38.6746143 8.5999999,40.0000978 C8.5999999,41.0117003 9.22587023,41.877123 10.1115134,42.2302684 L10.7003743,54.007486 C10.7080695,54.1613906 10.831114,54.2844351 10.9850187,54.2921304 C11.1504974,54.3004043 11.2913518,54.1729647 11.2996257,54.007486 L11.8884866,42.2302684 Z" id="path-5"></path></defs><g id="Plan/Business" stroke="none" stroke-width="1" fill="none" fill-rule="evenodd"><g id="plan"><mask id="mask-2" fill="white"><use xlink:href="#path-1"></use></mask><use id="bg" fill="#E38A40" fill-rule="nonzero" xlink:href="#path-1"></use><path d="M-2.7000624e-13,54 C2.66666667,54 12.6666667,54 30,54 C8,55.305701 5.33333333,60.6300026 22,69.9729047 C7.33333333,69.9729047 -2.7000624e-13,64.6486032 -2.7000624e-13,54 Z" id="line" fill="#B95E1B" mask="url(#mask-2)"></path><g id="icon" mask="url(#mask-2)"><g transform="translate(36.000000, 36.000000) rotate(30.000000) translate(-36.000000, -36.000000) "><mask id="mask-4" fill="white"><use xlink:href="#path-3"></use></mask><g id="bounds" stroke="none" fill="none"></g><g id="pen" stroke="none" stroke-width="1" fill="none" fill-rule="evenodd" mask="url(#mask-4)"><g transform="translate(25.000000, -4.000000)"><mask id="mask-6" fill="white"><use xlink:href="#path-5"></use></mask><use id="shape" stroke="none" fill="#FFFFFF" fill-rule="evenodd" xlink:href="#path-5"></use><rect id="alt" stroke="none" fill="#BB4F10" fill-rule="evenodd" mask="url(#mask-6)" x="-1" y="2.27373675e-13" width="24" height="26"></rect></g></g></g></g></g></g></svg>
